school/img/country/CAS.svg

<svg width="13" height="12" viewBox="0 0 13 12" fill="none" xmlns="http://www.w3.org/2000/svg">
<rect width="13" height="12" rx="2" fill="white"/>
<mask id="mask0" mask-type="alpha" maskUnits="userSpaceOnUse" x="0" y="0" width="13" height="12">
<rect width="13" height="12" rx="2" fill="white"/>
</mask>
<g mask="url(#mask0)">
<rect width="13" height="12" fill="#19BFBF"/>
<path fill-rule="evenodd" clip-rule="evenodd" d="M2.57412 4.94697C2.5171 5.09433 2.57138 5.26148 2.70409 5.34723L3.48646 5.85276C3.61917 5.93851 3.67344 6.10565 3.61643 6.25301L3.55258 6.41802C3.47633 6.6151 3.23829 6.6924 3.0608 6.57772L2.86833 6.45335C2.81442 6.41852 2.75161 6.39999 2.68743 6.39999H2.19051C2.00642 6.39999 1.85718 6.54923 1.85718 6.73333V6.98064C1.85718 7.11375 1.93638 7.23411 2.05864 7.28677L2.41853 7.44181C2.60455 7.52194 2.66501 7.75603 2.54105 7.91621C2.49903 7.97052 2.47623 8.03725 2.47623 8.10592V8.35769C2.47623 8.38578 2.47977 8.41375 2.48679 8.44095L2.75323 9.47393C2.77414 9.55499 2.82478 9.62521 2.8951 9.67065L3.14764 9.83383C3.29306 9.92779 3.48621 9.89478 3.59217 9.75785L4.02384 9.19999L4.11128 9.087C4.23076 8.93259 4.19255 8.709 4.02856 8.60304L3.80967 8.4616C3.75022 8.42319 3.71432 8.35725 3.71432 8.28647C3.71432 8.14497 3.85227 8.04456 3.98693 8.08806L4.72156 8.32541C4.85917 8.36987 4.95242 8.49798 4.95242 8.6426V9.11908C4.95242 9.17225 4.96514 9.22465 4.98951 9.2719L5.50725 10.2755C5.54669 10.352 5.62551 10.4 5.71152 10.4C5.81229 10.4 5.9013 10.3344 5.9311 10.2381L6.25863 9.17991C6.33821 8.9228 6.69751 8.9104 6.79463 9.16141C6.80453 9.187 6.81809 9.21101 6.83488 9.23271L7.39374 9.95493C7.41682 9.98476 7.44479 10.0104 7.47646 10.0309L7.53342 10.0677C7.75521 10.211 8.04765 10.0518 8.04765 9.78774V9.7139C8.04765 9.64006 8.02313 9.56831 7.97794 9.50991L7.89598 9.40399C7.80304 9.28387 7.80304 9.11611 7.89598 8.996L7.94757 8.92933C8.0107 8.84775 8.10804 8.79999 8.21119 8.79999H8.56838C8.63256 8.79999 8.69538 8.78146 8.74928 8.74663L9.13332 8.49848C9.22835 8.43708 9.28575 8.33166 9.28575 8.21851V7.7139C9.28575 7.64006 9.26123 7.56831 9.21604 7.50991L9.13408 7.40399C9.04113 7.28387 9.04113 7.11611 9.13408 6.996L9.23387 6.86704C9.39267 6.66182 9.71473 6.70875 9.80837 6.95076L9.8691 7.10774C9.89062 7.16334 9.9441 7.19999 10.0037 7.19999C10.1051 7.19999 10.1749 7.09816 10.1383 7.00357L10.0027 6.65301C9.94568 6.50565 9.99995 6.33851 10.1327 6.25276L10.296 6.14723C10.4287 6.06148 10.483 5.89433 10.426 5.74697L10.2648 5.33049C10.2325 5.24702 10.168 5.18004 10.0858 5.14463L9.68062 4.97009C9.48059 4.88392 9.41558 4.63221 9.54887 4.45996L9.80471 4.12933C9.86784 4.04775 9.96518 3.99999 10.0683 3.99999H10.6049C10.7426 3.99999 10.8661 3.91534 10.9158 3.78694L10.9877 3.60114C11.0663 3.39796 10.9321 3.17522 10.7157 3.1498L8.15911 2.84945C7.97397 2.8277 7.88345 2.61219 7.99753 2.46476C8.03003 2.42277 8.04765 2.37118 8.04765 2.31809V1.93332C8.04765 1.74923 7.89842 1.59999 7.71432 1.59999H6.66358C6.56042 1.59999 6.46308 1.64775 6.39995 1.72933L5.63454 2.71848C5.59345 2.77158 5.53728 2.81103 5.47339 2.83168L4.33337 3.19999L3.20494 3.56456C3.13554 3.58698 3.05973 3.57703 2.99848 3.53745C2.81273 3.41742 2.57629 3.58793 2.63152 3.80207L2.75901 4.29631C2.7764 4.36374 2.77224 4.43491 2.74711 4.49985L2.57412 4.94697ZM6.80954 9.99999C6.80954 10.2209 6.67096 10.4 6.50001 10.4C6.32907 10.4 6.19049 10.2209 6.19049 9.99999C6.19049 9.77908 6.32907 9.59999 6.50001 9.59999C6.67096 9.59999 6.80954 9.77908 6.80954 9.99999ZM4.64287 6.39999C4.81382 6.39999 4.95239 6.2209 4.95239 5.99999C4.95239 5.77907 4.81382 5.59999 4.64287 5.59999C4.47193 5.59999 4.33335 5.77907 4.33335 5.99999C4.33335 6.2209 4.47193 6.39999 4.64287 6.39999ZM10.5239 7.59999V7.99999L10.1883 8.4336C10.0727 8.58298 10.1792 8.79999 10.3681 8.79999C10.462 8.79999 10.5462 8.74227 10.5801 8.65472L10.8334 7.99999L10.5239 7.59999ZM10.5239 7.59999L10.7414 7.45943C10.8595 7.38315 10.8054 7.19999 10.6649 7.19999C10.587 7.19999 10.5239 7.26312 10.5239 7.341V7.59999Z" fill="white"/>
</g>
</svg>

<svg width="13" height="12" fill="none" xmlns="http://www.w3.org/2000/svg"><rect width="13" height="12" rx="2" fill="#fff"/><mask id="a" maskUnits="userSpaceOnUse" x="0" y="0" width="13" height="12"><rect width="13" height="12" rx="2" fill="#fff"/></mask><g mask="url(#a)"><path fill="#19BFBF" d="M0 0h13v12H0z"/><path fill-rule="evenodd" clip-rule="evenodd" d="M2.574 4.947a.333.333 0 00.13.4l.782.506a.333.333 0 01.13.4l-.063.165a.333.333 0 01-.492.16l-.193-.125a.333.333 0 00-.18-.053H2.19a.333.333 0 00-.334.333v.248c0 .133.08.253.202.306l.36.155a.31.31 0 01.122.474.31.31 0 00-.065.19v.252c0 .028.004.056.01.083l.267 1.033a.338.338 0 00.142.197l.253.163a.333.333 0 00.444-.076l.432-.558.087-.113a.333.333 0 00-.082-.484l-.22-.141a.208.208 0 01.178-.374l.735.237c.137.045.23.173.23.318v.476c0 .053.013.106.038.153l.517 1.003a.23.23 0 00.424-.037l.33-1.058a.284.284 0 01.536-.019c.01.026.023.05.04.072l.559.722a.33.33 0 00.082.076l.057.037a.333.333 0 00.515-.28v-.074a.333.333 0 00-.07-.204l-.082-.106a.333.333 0 010-.408l.052-.067A.333.333 0 018.21 8.8h.357a.333.333 0 00.181-.053l.384-.249a.333.333 0 00.153-.28v-.504a.333.333 0 00-.07-.204l-.082-.106a.333.333 0 010-.408l.1-.129a.333.333 0 01.574.084l.061.157a.144.144 0 00.27-.104l-.136-.351a.333.333 0 01.13-.4l.163-.106a.333.333 0 00.13-.4l-.161-.417a.333.333 0 00-.18-.185L9.68 4.97a.333.333 0 01-.132-.51l.256-.33a.333.333 0 01.263-.13h.537a.333.333 0 00.31-.213l.073-.186a.333.333 0 00-.272-.451l-2.557-.3a.24.24 0 01-.161-.385.24.24 0 00.05-.147v-.385a.333.333 0 00-.334-.333h-1.05c-.104 0-.2.048-.264.13l-.765.988a.333.333 0 01-.162.114l-1.14.368-1.128.365a.243.243 0 01-.207-.028.243.243 0 00-.366.265l.127.494a.333.333 0 01-.012.204l-.173.447zM6.81 10c0 .22-.139.4-.31.4-.17 0-.31-.18-.31-.4 0-.22.14-.4.31-.4.171 0 .31.18.31.4zM4.643 6.4c.17 0 .31-.18.31-.4 0-.22-.14-.4-.31-.4-.171 0-.31.18-.31.4 0 .22.139.4.31.4zm5.88 1.2V8l-.335.434a.227.227 0 10.392.22L10.833 8l-.31-.4zm0 0l.218-.14a.141.141 0 10-.218-.118V7.6z" fill="#fff"/></g></svg>
